src/images/Git.svg

<svg width="97" height="97" viewBox="0 0 97 97" fill="none" xmlns="http://www.w3.org/2000/svg">
<path fill-rule="evenodd" clip-rule="evenodd" d="M7.83687 44.2162C5.47104 46.5821 5.47104 50.4179 7.83687 52.7838L44.2162 89.163C46.5821 91.5289 50.4179 91.5289 52.7838 89.163L89.163 52.7838C91.5289 50.4179 91.5289 46.5821 89.163 44.2162L52.7838 7.83687C50.4179 5.47104 46.5821 5.47104 44.2162 7.83687L7.83687 44.2162ZM33.1426 19.0267L36.8265 15.3427L46.5895 25.1057C47.193 24.9187 47.8341 24.818 48.4989 24.818C52.0564 24.818 54.9403 27.7019 54.9403 31.2595C54.9403 31.9242 54.8397 32.5656 54.6526 33.1688L64.4208 42.937C65.0453 42.7355 65.7109 42.6266 66.4024 42.6266C69.9598 42.6266 72.8438 45.5106 72.8438 49.0681C72.8438 52.6255 69.9598 55.5095 66.4024 55.5095C62.8449 55.5095 59.961 52.6255 59.961 49.0681C59.961 48.1223 60.1647 47.2241 60.5308 46.4151L51.4356 37.3198V60.8578C53.5165 61.9254 54.9403 64.0928 54.9403 66.5923C54.9403 70.1498 52.0564 73.0337 48.4989 73.0337C44.9414 73.0337 42.0575 70.1498 42.0575 66.5923C42.0575 63.8351 43.7898 61.4825 46.2255 60.5638V37.288C43.7898 36.3692 42.0575 34.0167 42.0575 31.2595C42.0575 30.2883 42.2724 29.3673 42.6574 28.5416L33.1426 19.0267Z" fill="url(#paint0_linear_24_979)"/>
<defs>
<linearGradient id="paint0_linear_24_979" x1="20.3431" y1="74.1613" x2="69.5841" y2="10.6644" gradientUnits="userSpaceOnUse">
<stop offset="0.00833321" stop-color="#5C03BC"/>
<stop offset="0.53125" stop-color="#E536AB"/>
<stop offset="0.898958" stop-color="#F4E5F0"/>
</linearGradient>
</defs>
</svg>

<svg xmlns="http://www.w3.org/2000/svg" width="97" height="97" fill="none"><path fill="url(#a)" fill-rule="evenodd" d="M7.837 44.216a6.058 6.058 0 0 0 0 8.568l36.38 36.379a6.058 6.058 0 0 0 8.567 0l36.379-36.38a6.058 6.058 0 0 0 0-8.567l-36.38-36.38a6.058 6.058 0 0 0-8.567 0l-36.38 36.38Zm25.306-25.19 3.684-3.683 9.763 9.763a6.441 6.441 0 0 1 8.063 8.063l9.768 9.768a6.442 6.442 0 1 1-3.89 3.478l-9.095-9.095v23.538a6.441 6.441 0 1 1-5.21-.294V37.288a6.443 6.443 0 0 1-3.569-8.746l-9.514-9.515Z" clip-rule="evenodd"/><defs><linearGradient id="a" x1="20.343" x2="69.584" y1="74.161" y2="10.664" gradientUnits="userSpaceOnUse"><stop offset=".008" stop-color="#5C03BC"/><stop offset=".531" stop-color="#E536AB"/><stop offset=".899" stop-color="#F4E5F0"/></linearGradient></defs></svg>
